X: 11530
T: Eddie Moloney's Favourite
R: reel
M: 4/4
K: Edorian
B2 GB EBGB|BAFA DAFA|B2GB EBGA|(3Bcd ed BdAF|
B2 GB dBGB|A2FA dBAF|E3F GFGA|(3Bcd ed Bdef||
g3f gfed|B3A (3Bcd ef|g2ef gfed|(3Bcd Ad FE E2|
g3a gfed|B2AB GBAF|E3F GFGA|(3Bcd ed BAAF||

